X: 251397
T: You'll Come Home with Me
T: Tiocfaidh t\'u Abhaile Liom
S: B.Breathnach:"Ceol Rince na hEireann" II/8 
Z: B.Black
L: 1/8
M: 6/8
R: jig
K: G
z|F2F G2G|A2B cAG|A2A ABG|A2A ABG|
FEF GG/F/G|Add cAF|G2G GAF|1 G2G GAG :|2\
GGG G2||
A|fed gef|fed cAG|A2A ABG|A2A ABd|
gef fed|ef/g/e dBA|G2G GBA|GGG GAd|
fed efg|fed cAG|A2A ABG|A2A ABG|
fed gfe|fed cAF|G2G GAF|G2G G2||
e|f3 gfg|a2b c'ag|a2a abg|aaa abg|
fef gf/g/f/g/|a2b c'af|g2g a2f|g2g gag||
f2d g2e|fed cAF|A2A ABG|AAA ABG|
fed gfe|fed cAF|G2G GAF|GGG G2||
